; generated by PrusaSlicer 2.7.1+MacOS-x64 on 2024-04-25 at 17:34:55 UTC


;
;
; 

; external perimeters extrusion width = 0.60mm
; perimeters extrusion width = 0.50mm
; infill extrusion width = 0.50mm
; solid infill extrusion width = 0.50mm
; top infill extrusion width = 0.45mm
; first layer extrusion width = 0.42mm

; external perimeters extrusion width = 0.60mm
; perimeters extrusion width = 0.50mm
; infill extrusion width = 0.50mm
; solid infill extrusion width = 0.50mm
; top infill extrusion width = 0.45mm
; first layer extrusion width = 0.42mm

; external perimeters extrusion width = 0.60mm
; perimeters extrusion width = 0.50mm
; infill extrusion width = 0.50mm
; solid infill extrusion width = 0.50mm
; top infill extrusion width = 0.45mm
; first layer extrusion width = 0.42mm

; external perimeters extrusion width = 0.60mm
; perimeters extrusion width = 0.50mm
; infill extrusion width = 0.50mm
; solid infill extrusion width = 0.50mm
; top infill extrusion width = 0.45mm
; first layer extrusion width = 0.42mm

; external perimeters extrusion width = 0.60mm
; perimeters extrusion width = 0.50mm
; infill extrusion width = 0.50mm
; solid infill extrusion width = 0.50mm
; top infill extrusion width = 0.45mm
; first layer extrusion width = 0.42mm

M73 P0 R176
M73 Q0 S178
M201 X1000 Y1000 Z200 E5000 ; sets maximum accelerations, mm/sec^2
M203 X200 Y200 Z12 E120 ; sets maximum feedrates, mm / sec
M204 S1250 T1250 ; sets acceleration (S) and retract acceleration (R), mm/sec^2
M205 X8.00 Y8.00 Z0.40 E4.50 ; sets the jerk limits, mm/sec
M205 S0 T0 ; sets the minimum extruding and travel feed rate, mm/sec

; printing object top hemi.stl id:3 copy 0
; stop printing object top hemi.stl id:3 copy 0
; printing object rail.stl id:0 copy 0
; stop printing object rail.stl id:0 copy 0
; printing object slider.stl id:2 copy 0
; stop printing object slider.stl id:2 copy 0
; printing object bottom hemi.stl id:4 copy 0
; stop printing object bottom hemi.stl id:4 copy 0
; printing object rail.stl id:1 copy 0
; stop printing object rail.stl id:1 copy 0

;TYPE:Custom
M862.3 P "MK3S" ; printer model check
M862.1 P0.4 ; nozzle diameter check
M115 U3.13.2 ; tell printer latest fw version
G90 ; use absolute coordinates
M83 ; extruder relative mode
M104 S230 ; set extruder temp
M140 S85 ; set bed temp
M190 S85 ; wait for bed temp
M109 S230 ; wait for extruder temp
G28 W ; home all without mesh bed level
G80 X58.9344 Y38.366 W132.131 H133.268 ; mesh bed levelling

G1 Z0.2 F720
G1 Y-3 F1000 ; go outside print area
G92 E0
G1 X60 E9 F1000 ; intro line
G1 X100 E12.5 F1000 ; intro line

G92 E0
M221 S95

; Don't change E values below. Excessive value can damage the printer.

M907 E538 ; set extruder motor current
G21 ; set units to millimeters
G90 ; use absolute coordinates
M83 ; use relative distances for extrusion

M900 K0.08 ; Filament gcode LA 1.5
M900 K45 ; Filament gcode LA 1.0




M107
;LAYER_CHANGE
;Z:0.2
;HEIGHT:0.2
;BEFORE_LAYER_CHANGE
G92 E0.0
;0.2


G1 E-1 F2100
G1 Z.2 F720
;AFTER_LAYER_CHANGE
;0.2
G1 X59.515 Y39.625 F10800
G1 Z.2 F720
G1 E1 F2100
M204 S800
;TYPE:Skirt/Brim
;WIDTH:0.42
G1 F1200
G1 X60.56 Y38.748 E.04277
G1 X61.5 Y38.555 E.03009
G1 X188.5 Y38.555 E3.982
G1 X189.807 Y38.946 E.04277
G1 X190.683 Y39.992 E.04278
G1 X190.877 Y40.932 E.03009
G1 X190.877 Y86.932 E1.4423
G1 X190.771 Y87.633 E.02223
G1 X178.388 Y127.579 E1.31128
G1 X177.635 Y129.381 E.06123
G1 X176.836 Y130.977 E.05596
G1 X175.844 Y132.661 E.06128
G1 X174.735 Y134.269 E.06125
G1 X173.402 Y135.923 E.06661
G1 X172.066 Y137.348 E.06125
G1 X170.708 Y138.611 E.05815
G1 X133.958 Y170.855 E1.53291
G1 X132.39 Y171.445 E.05253
G1 X121.39 Y171.445 E.3449
G1 X120.037 Y171.023 E.04444
G1 X80.438 Y143.582 E1.51058
G1 X78.697 Y142.152 E.07064
G1 X77.372 Y140.892 E.05733
G1 X76.124 Y139.53 E.05792
G1 X74.731 Y137.758 E.07067
G1 X73.708 Y136.243 E.05732
G1 X72.783 Y134.644 E.05792
G1 X71.86 Y132.752 E.06601
G1 X71.082 Y130.774 E.06664
G1 X70.542 Y129.063 E.05626
G1 X59.207 Y87.558 E1.34902
G1 X59.123 Y86.932 E.0198
G1 X59.123 Y40.932 E1.4423
G1 X59.497 Y39.682 E.04091
M204 S1000
; printing object bottom hemi.stl id:4 copy 0
;WIPE_START
G1 F8640
G1 X59.515 Y39.625 E-.0138
G1 X60.56 Y38.748 E-.31501
G1 X61.5 Y38.555 E-.22158
G1 X63.447 Y38.555 E-.44961
;WIPE_END
G1 Z.4 F720
G1 X102.292 Y145.322 F10800
G1 Z.2 F720
G1 E1 F2100
M204 S800
;TYPE:Perimeter
;WIDTH:0.419999
G1 F1200
G1 X102.141 Y145.361 E.00489
G1 X100.423 Y145.677 E.05477
G1 X98.587 Y145.873 E.05789
G1 X96.938 Y145.933 E.05174
G1 X95.191 Y145.871 E.05481
G1 X93.356 Y145.668 E.05789
G1 X91.733 Y145.372 E.05173
G1 X90.04 Y144.936 E.05481
G1 X88.384 Y144.38 E.05477
G1 X86.682 Y143.663 E.05791
G1 X85.211 Y142.916 E.05173
G1 X83.712 Y142.016 E.05482
G1 X82.283 Y141.011 E.05478
G1 X80.856 Y139.839 E.0579
G1 X79.658 Y138.704 E.05174
G1 X78.478 Y137.415 E.05479
G1 X77.337 Y135.964 E.05788
G1 X76.411 Y134.598 E.05174
G1 X75.536 Y133.085 E.0548
G1 X74.772 Y131.513 E.0548
G1 X74.092 Y129.797 E.05787
M73 P0 R175
G1 X73.593 Y128.224 E.05174
G1 X73.185 Y126.524 E.05482
G1 X72.901 Y124.8 E.05478
G1 X72.738 Y122.961 E.05789
G1 X72.708 Y121.311 E.05174
G1 X72.801 Y119.566 E.05479
G1 X73.037 Y117.735 E.05788
G1 X73.363 Y116.117 E.05175
G1 X73.829 Y114.432 E.05482
G1 X74.415 Y112.786 E.05478
G1 X75.163 Y111.098 E.05789
G1 X75.936 Y109.64 E.05174
G1 X76.862 Y108.158 E.05479
G1 X77.893 Y106.747 E.05479
G1 X79.091 Y105.342 E.05789
G1 X80.247 Y104.165 E.05173
G1 X81.558 Y103.008 E.05482
G1 X82.948 Y101.949 E.05479
G1 X84.496 Y100.944 E.05787
G1 X85.94 Y100.145 E.05174
G1 X87.526 Y99.409 E.05482
G1 X89.16 Y98.79 E.05479
G1 X90.931 Y98.268 E.05789
G1 X92.542 Y97.913 E.05172
G1 X94.272 Y97.659 E.05482
G1 X96.014 Y97.532 E.05476
G1 X97.861 Y97.535 E.05791
G1 X99.506 Y97.654 E.05171
G1 X101.237 Y97.904 E.05484
G1 X102.943 Y98.278 E.05476
G1 X104.712 Y98.807 E.05789
G1 X106.256 Y99.39 E.05175
G1 X107.843 Y100.123 E.05481
G1 X109.373 Y100.967 E.05479
G1 X110.918 Y101.979 E.05791
G1 X112.231 Y102.977 E.05171
G1 X113.544 Y104.132 E.05483
G1 X114.77 Y105.377 E.05479
G1 X115.962 Y106.786 E.05787
G1 X116.937 Y108.118 E.05176
G1 X117.867 Y109.598 E.05481
G1 X118.687 Y111.141 E.05479
G1 X119.428 Y112.832 E.05789
G1 X119.983 Y114.386 E.05174
G1 X120.453 Y116.07 E.05482
G1 X120.799 Y117.783 E.05479
G1 X121.028 Y119.615 E.05789
G1 X121.118 Y121.262 E.05172
G1 X121.104 Y122.092 E.02603
G1 X121.088 Y123.009 E.02876
G1 X120.918 Y124.848 E.05791
G1 X120.651 Y126.476 E.05173
G1 X120.246 Y128.177 E.05482
G1 X119.72 Y129.843 E.05478
G1 X119.033 Y131.557 E.0579
G1 X118.314 Y133.042 E.05173
G1 X117.441 Y134.557 E.05482
G1 X116.462 Y136.004 E.05478
G1 X115.315 Y137.451 E.05789
G1 X114.203 Y138.669 E.05171
G1 X112.935 Y139.872 E.0548
G1 X111.504 Y141.039 E.0579
G1 X110.155 Y141.99 E.05175
G1 X108.658 Y142.893 E.05482
G1 X107.101 Y143.685 E.05477
G1 X105.397 Y144.396 E.05789
G1 X103.833 Y144.923 E.05175
G1 X102.35 Y145.307 E.04803
M204 S1000
G1 X102.387 Y145.687 F10800
M204 S800
;TYPE:External perimeter
G1 F1200
G1 X102.223 Y145.73 E.00532
G1 X100.477 Y146.05 E.05566
G1 X98.614 Y146.249 E.05875
G1 X96.938 Y146.31 E.05258
G1 X95.164 Y146.248 E.05566
G1 X93.302 Y146.042 E.05874
G1 X91.652 Y145.74 E.05259
G1 X89.933 Y145.298 E.05565
G1 X88.25 Y144.733 E.05566
G1 X86.524 Y144.005 E.05873
G1 X85.028 Y143.246 E.0526
G1 X83.506 Y142.333 E.05565
G1 X82.054 Y141.312 E.05565
G1 X80.607 Y140.122 E.05874
G1 X79.389 Y138.969 E.05259
G1 X78.191 Y137.659 E.05566
G1 X77.033 Y136.186 E.05875
G1 X76.092 Y134.798 E.05258
G1 X75.203 Y133.262 E.05564
G1 X74.427 Y131.665 E.05567
G1 X73.737 Y129.923 E.05875
G1 X73.23 Y128.325 E.05257
M73 Q0 S177
G1 X72.815 Y126.599 E.05566
G1 X72.526 Y124.847 E.05567
G1 X72.361 Y122.981 E.05874
G1 X72.331 Y121.305 E.05256
G1 X72.425 Y119.532 E.05567
G1 X72.665 Y117.674 E.05874
G1 X72.996 Y116.03 E.05258
G1 X73.469 Y114.319 E.05566
G1 X74.064 Y112.647 E.05564
G1 X74.823 Y110.933 E.05877
G1 X75.609 Y109.452 E.05257
G1 X76.55 Y107.947 E.05565
G1 X77.597 Y106.513 E.05567
G1 X78.813 Y105.088 E.05874
G1 X79.988 Y103.891 E.05259
G1 X81.319 Y102.716 E.05567
G1 X82.73 Y101.641 E.05562
G1 X84.302 Y100.62 E.05877
G1 X85.769 Y99.808 E.05257
G1 X87.38 Y99.061 E.05568
G1 X89.039 Y98.433 E.05562
G1 X90.837 Y97.902 E.05878
G1 X92.474 Y97.542 E.05255
G1 X94.231 Y97.284 E.05568
G1 X96.001 Y97.155 E.05564
G1 X97.875 Y97.158 E.05876
G1 X99.547 Y97.279 E.05256
G1 X101.304 Y97.533 E.05566
G1 X103.038 Y97.913 E.05566
G1 X104.833 Y98.45 E.05875
G1 X106.402 Y99.042 E.05258
G1 X108.014 Y99.786 E.05567
G1 X109.568 Y100.644 E.05566
G1 X111.135 Y101.671 E.05874
G1 X112.47 Y102.685 E.05256
G1 X113.803 Y103.857 E.05565
G1 X115.048 Y105.123 E.05567
G1 X116.259 Y106.553 E.05875
G1 X117.249 Y107.906 E.05257
G1 X118.193 Y109.409 E.05565
G1 X119.026 Y110.977 E.05567
G1 X119.779 Y112.693 E.05876
G1 X120.343 Y114.272 E.05257
G1 X120.82 Y115.982 E.05566
G1 X121.172 Y117.722 E.05566
G1 X121.404 Y119.581 E.05874
G1 X121.495 Y121.255 E.05256
G1 X121.481 Y122.099 E.02647
G1 X121.465 Y123.03 E.0292
G1 X121.292 Y124.896 E.05876
G1 X121.021 Y126.551 E.05258
G1 X120.61 Y128.278 E.05566
G1 X120.075 Y129.97 E.05564
G1 X119.378 Y131.71 E.05877
G1 X118.647 Y133.218 E.05254
G1 X117.761 Y134.757 E.05568
G1 X116.766 Y136.227 E.05566
G1 X115.603 Y137.696 E.05875
G1 X114.472 Y138.934 E.05258
G1 X113.184 Y140.156 E.05567
G1 X111.732 Y141.34 E.05874
G1 X110.362 Y142.306 E.05256
G1 X108.841 Y143.223 E.05569
G1 X107.259 Y144.027 E.05564
G1 X105.53 Y144.749 E.05875
G1 X103.941 Y145.284 E.05257
G1 X102.445 Y145.672 E.04846
M204 S1000
;WIPE_START
G1 F8640
G1 X102.387 Y145.687 E-.01383
G1 X102.223 Y145.73 E-.03915
G1 X100.477 Y146.05 E-.40987
G1 X98.614 Y146.249 E-.43262
G1 X98.162 Y146.265 E-.10453
;WIPE_END
G1 Z.4 F720
G1 X115.846 Y106.915 F10800
G1 Z.2 F720
G1 E1 F2100
M204 S800
;TYPE:Solid infill
;WIDTH:0.421704
G1 F1200
G1 X113.301 Y104.37 E.11336
G1 X112.016 Y103.24 E.0539
G1 X110.722 Y102.256 E.0512
G1 X110.519 Y102.123 E.00764
G1 X116.525 Y108.129 E.26752
G1 X116.656 Y108.309 E.00701
G1 X117.479 Y109.619 E.04873
G1 X109.02 Y101.16 E.37678
G1 X107.824 Y100.5 E.04302
G1 X118.117 Y110.793 E.45847
G1 X118.381 Y111.289 E.0177
G1 X118.618 Y111.829 E.01857
G1 X106.807 Y100.018 E.52609
G1 X106.125 Y99.704 E.02365
G1 X105.854 Y99.601 E.00913
G1 X119.036 Y112.784 E.58718
G1 X119.356 Y113.639 E.02875
G1 X104.993 Y99.276 E.63976
G1 X104.604 Y99.129 E.0131
G1 X104.185 Y99.004 E.01377
G1 X119.654 Y114.472 E.689
G1 X119.863 Y115.217 E.02437
G1 X103.421 Y98.775 E.73236
G1 X102.677 Y98.567 E.02433
G1 X120.07 Y115.959 E.7747
G1 X120.224 Y116.649 E.02227
G1 X101.991 Y98.417 E.81211
G1 X101.305 Y98.267 E.02212
G1 X120.36 Y117.321 E.84873
G1 X120.482 Y117.979 E.02108
G1 X100.668 Y98.165 E.88256
G1 X100.042 Y98.074 E.01992
G1 X120.558 Y118.591 E.91385
G1 X120.635 Y119.203 E.01943
G1 X99.42 Y97.988 E.94496
G1 X98.842 Y97.946 E.01825
G1 X120.699 Y119.803 E.97356
G1 X120.729 Y120.369 E.01785
G1 X98.265 Y97.905 E1.00059
G1 X97.699 Y97.874 E.01785
G1 X120.76 Y120.936 E1.02721
G1 X120.775 Y121.486 E.01733
G1 X97.162 Y97.873 E1.05177
G1 X96.625 Y97.872 E.01691
G1 X120.766 Y122.012 E1.07527
G1 X120.757 Y122.539 E.0166
G1 X96.089 Y97.871 E1.09876
G1 X95.585 Y97.903 E.01591
G1 X120.742 Y123.061 E1.12057
G1 X120.697 Y123.551 E.0155
G1 X95.086 Y97.94 E1.14077
G1 X94.587 Y97.977 E.01576
G1 X120.652 Y124.041 E1.16097
G1 X120.606 Y124.532 E.01553
G1 X94.102 Y98.027 E1.18057
G1 X93.635 Y98.096 E.01487
G1 X120.548 Y125.009 E1.19876
G1 X120.472 Y125.469 E.01468
G1 X93.168 Y98.164 E1.2162
G1 X92.7 Y98.233 E.0149
G1 X120.397 Y125.929 E1.23366
G1 X120.321 Y126.389 E.01468
G1 X92.256 Y98.323 E1.2501
G1 X91.817 Y98.42 E.01416
G1 X120.22 Y126.823 E1.26513
G1 X120.117 Y127.256 E.01402
G1 X91.377 Y98.517 E1.28012
G1 X90.943 Y98.618 E.01403
M73 P0 R174
G1 X120.014 Y127.689 E1.29488
G1 X119.909 Y128.119 E.01394
G1 X90.529 Y98.74 E1.30862
G1 X90.116 Y98.862 E.01356
G1 X119.78 Y128.526 E1.3213
G1 X119.651 Y128.933 E.01345
G1 X89.702 Y98.984 E1.33399
G1 X89.288 Y99.106 E.01359
M73 Q0 S176
G1 X119.523 Y129.34 E1.34671
G1 X119.393 Y129.746 E.01343
G1 X88.899 Y99.252 E1.35827
G1 X88.51 Y99.399 E.0131
G1 X119.24 Y130.129 E1.36878
G1 X119.087 Y130.511 E.01296
M73 P1 R174
M73 Q1 S176
G1 X88.122 Y99.546 E1.37925
G1 X87.733 Y99.694 E.01311
G1 X118.933 Y130.894 E1.38971
G1 X118.78 Y131.276 E.01296
G1 X87.363 Y99.859 E1.39938
G1 X86.997 Y100.029 E.01271
G1 X118.613 Y131.645 E1.40824
G1 X118.439 Y132.006 E.01262
G1 X86.631 Y100.198 E1.4168
G1 X86.265 Y100.368 E.01271
G1 X118.264 Y132.367 E1.4253
G1 X118.089 Y132.728 E.01264
G1 X85.91 Y100.549 E1.43332
G1 X85.566 Y100.74 E.01239
G1 X117.902 Y133.076 E1.44031
G1 X117.706 Y133.416 E.01236
G1 X85.221 Y100.931 E1.44695
G1 X84.876 Y101.122 E.01242
G1 X117.51 Y133.756 E1.45359
G1 X117.315 Y134.096 E.01234
G1 X84.539 Y101.321 E1.45989
G1 X84.214 Y101.532 E.0122
G1 X117.115 Y134.432 E1.46546
G1 X116.899 Y134.752 E.01216
G1 X83.89 Y101.742 E1.47031
G1 X83.565 Y101.953 E.0122
G1 X116.683 Y135.071 E1.47515
G1 X116.467 Y135.391 E.01216
G1 X83.24 Y102.164 E1.48
G1 X82.93 Y102.39 E.01208
G1 X116.251 Y135.71 E1.48416
G1 X116.02 Y136.015 E.01205
G1 X82.626 Y102.621 E1.48744
G1 X82.322 Y102.853 E.01204
G1 X115.783 Y136.314 E1.49042
G1 X115.546 Y136.613 E.01202
G1 X82.018 Y103.084 E1.49343
G1 X81.773 Y103.271 E.00971
G1 X81.717 Y103.32 E.00234
G1 X115.31 Y136.912 E1.49628
G1 X115.073 Y137.211 E.01202
M73 P1 R173
G1 X81.433 Y103.571 E1.4984
G1 X81.148 Y103.822 E.01196
G1 X114.818 Y137.492 E1.49973
G1 X114.563 Y137.772 E.01193
G1 X80.864 Y104.073 E1.50102
G1 X80.579 Y104.325 E.01198
M73 Q1 S175
G1 X114.307 Y138.052 E1.50229
G1 X114.051 Y138.332 E.01195
G1 X80.307 Y104.588 E1.50303
G1 X80.042 Y104.859 E.01194
G1 X113.783 Y138.6 E1.50289
G1 X113.508 Y138.861 E.01194
G1 X79.776 Y105.129 E1.50249
G1 X79.511 Y105.399 E.01192
G1 X113.233 Y139.121 E1.50205
G1 X112.958 Y139.382 E.01194
G1 X79.252 Y105.676 E1.50134
G1 X79.006 Y105.965 E.01195
G1 X112.682 Y139.641 E1.5
G1 X112.387 Y139.882 E.012
G1 X78.759 Y106.254 E1.49786
G1 X78.513 Y106.544 E.01198
G1 X112.092 Y140.122 E1.49566
G1 X111.797 Y140.363 E.012
G1 X78.266 Y106.833 E1.49352
G1 X78.031 Y107.133 E.012
G1 X111.502 Y140.604 E1.49087
G1 X111.2 Y140.838 E.01203
G1 X77.805 Y107.443 E1.48748
G1 X77.579 Y107.752 E.01206
G1 X110.886 Y141.06 E1.48359
G1 X110.572 Y141.281 E.01209
G1 X77.353 Y108.062 E1.47964
G1 X77.128 Y108.373 E.01209
G1 X110.258 Y141.503 E1.47568
G1 X109.942 Y141.722 E.01211
G1 X76.922 Y108.703 E1.47076
G1 X76.716 Y109.032 E.01223
G1 X109.608 Y141.924 E1.46508
G1 X109.274 Y142.125 E.01228
G1 X76.51 Y109.362 E1.45935
G1 X76.304 Y109.692 E.01225
G1 X108.939 Y142.327 E1.45363
G1 X108.605 Y142.528 E.01228
G1 X76.111 Y110.034 E1.44735
G1 X75.925 Y110.384 E.01248
G1 X108.257 Y142.716 E1.44014
G1 X107.902 Y142.897 E.01255
G1 X75.74 Y110.734 E1.43259
G1 X75.554 Y111.085 E.01251
M73 P2 R172
G1 X107.547 Y143.077 E1.42501
G1 X107.192 Y143.258 E.01255
M73 Q2 S175
G1 X75.38 Y111.446 E1.41697
G1 X75.215 Y111.817 E.01279
G1 X106.829 Y143.43 E1.40813
G1 X106.451 Y143.588 E.0129
M73 Q2 S174
G1 X75.051 Y112.188 E1.39862
G1 X74.886 Y112.559 E.01279
G1 X106.073 Y143.746 E1.38913
G1 X105.695 Y143.904 E.0129
G1 X74.723 Y112.932 E1.37956
G1 X74.582 Y113.327 E.01321
G1 X105.317 Y144.061 E1.36898
G1 X104.919 Y144.199 E.01327
G1 X74.442 Y113.722 E1.35751
G1 X74.301 Y114.117 E.01321
G1 X104.518 Y144.334 E1.34593
G1 X104.117 Y144.469 E.01333
G1 X74.161 Y114.512 E1.33433
G1 X74.043 Y114.93 E.01368
G1 X103.715 Y144.603 E1.32168
G1 X103.29 Y144.713 E.01383
G1 X73.927 Y115.35 E1.30789
G1 X73.811 Y115.769 E.01369
G1 X102.865 Y144.823 E1.29413
G1 X102.439 Y144.933 E.01386
G1 X73.695 Y116.189 E1.28032
G1 X73.605 Y116.635 E.01433
G1 X102.011 Y145.04 E1.26524
G1 X101.558 Y145.123 E.01451
G1 X73.515 Y117.08 E1.24909
G1 X73.425 Y117.526 E.01433
G1 X101.105 Y145.207 E1.23295
G1 X100.653 Y145.29 E.01447
G1 X73.347 Y117.984 E1.21627
G1 X73.286 Y118.458 E.01505
G1 X100.188 Y145.361 E1.19829
G1 X99.704 Y145.412 E.01533
G1 X73.225 Y118.933 E1.17943
G1 X73.164 Y119.407 E.01505
G1 X99.22 Y145.464 E1.16061
