; generated by PrusaSlicer 2.7.1+win64 on 2024-05-13 at 12:28:53 UTC


;
;
; 

; external perimeters extrusion width = 0.60mm
; perimeters extrusion width = 0.50mm
; infill extrusion width = 0.50mm
; solid infill extrusion width = 0.50mm
; top infill extrusion width = 0.45mm
; first layer extrusion width = 0.42mm

; external perimeters extrusion width = 0.60mm
; perimeters extrusion width = 0.50mm
; infill extrusion width = 0.50mm
; solid infill extrusion width = 0.50mm
; top infill extrusion width = 0.45mm
; first layer extrusion width = 0.42mm

M73 P0 R55
M73 Q0 S55
M201 X1000 Y1000 Z200 E5000 ; sets maximum accelerations, mm/sec^2
M203 X200 Y200 Z12 E120 ; sets maximum feedrates, mm / sec
M204 S1250 T1250 ; sets acceleration (S) and retract acceleration (R), mm/sec^2
M205 X8.00 Y8.00 Z0.40 E4.50 ; sets the jerk limits, mm/sec
M205 S0 T0 ; sets the minimum extruding and travel feed rate, mm/sec

; printing object BuckleMale.stl id:1 copy 0
; stop printing object BuckleMale.stl id:1 copy 0
; printing object Body1.stl id:0 copy 0
; stop printing object Body1.stl id:0 copy 0

;TYPE:Custom
M862.3 P "MK3S" ; printer model check
M862.1 P0.4 ; nozzle diameter check
M115 U3.13.2 ; tell printer latest fw version
G90 ; use absolute coordinates
M83 ; extruder relative mode
M104 S230 ; set extruder temp
M140 S85 ; set bed temp
M190 S85 ; wait for bed temp
M109 S230 ; wait for extruder temp
G28 W ; home all without mesh bed level
G80 X88.2253 Y82.9344 W73.5494 H44.1312 ; mesh bed levelling

G1 Z0.2 F720
G1 Y-3 F1000 ; go outside print area
G92 E0
G1 X60 E9 F1000 ; intro line
G1 X100 E12.5 F1000 ; intro line

G92 E0
M221 S95

; Don't change E values below. Excessive value can damage the printer.

M907 E538 ; set extruder motor current
G21 ; set units to millimeters
G90 ; use absolute coordinates
M83 ; use relative distances for extrusion
M900 K0.08 ; Filament gcode LA 1.5
M900 K45 ; Filament gcode LA 1.0

M107
;LAYER_CHANGE
;Z:0.2
;HEIGHT:0.2
;BEFORE_LAYER_CHANGE
G92 E0.0
;0.2


G1 E-1 F2100
G1 Z.2 F720
;AFTER_LAYER_CHANGE
;0.2
G1 X88.805 Y84.193 F10800
G1 Z.2 F720
G1 E1 F2100
M204 S800
;TYPE:Skirt/Brim
;WIDTH:0.42
G1 F1200
G1 X89.851 Y83.317 E.04278
G1 X90.791 Y83.123 E.03009
G1 X159.209 Y83.123 E2.1452
G1 X160.516 Y83.515 E.04278
G1 X161.393 Y84.56 E.04277
G1 X161.586 Y85.5 E.03009
G1 X161.586 Y124.5 E1.22282
G1 X161.195 Y125.807 E.04277
G1 X160.149 Y126.683 E.04278
G1 X159.209 Y126.877 E.03009
G1 X90.791 Y126.877 E2.1452
G1 X89.484 Y126.485 E.04278
G1 X88.607 Y125.44 E.04277
G1 X88.414 Y124.5 E.03009
G1 X88.414 Y85.5 E1.22282
G1 X88.788 Y84.25 E.04091
M204 S1000
; printing object BuckleMale.stl id:1 copy 0
;WIPE_START
G1 F8640
G1 X88.805 Y84.193 E-.01373
G1 X89.851 Y83.317 E-.31504
G1 X90.791 Y83.123 E-.22162
G1 X92.738 Y83.123 E-.44961
;WIPE_END
G1 Z.4 F720
G1 X136.438 Y96.7 F10800
G1 Z.2 F720
G1 E1 F2100
M204 S800
;TYPE:Perimeter
;WIDTH:0.419999
G1 F1200
G1 X136.422 Y96.779 E.00253
G1 X136.424 Y102.268 E.1721
G1 X136.503 Y102.513 E.00807
G1 X136.713 Y102.716 E.00916
G1 X136.988 Y102.787 E.00891
G1 X158.422 Y102.787 E.67205
G1 X158.422 Y107.213 E.13877
G1 X136.988 Y107.213 E.67205
G1 X136.836 Y107.234 E.00481
G1 X136.626 Y107.344 E.00743
G1 X136.485 Y107.52 E.00707
G1 X136.422 Y107.779 E.00836
G1 X136.431 Y113.323 E.17383
G1 X136.535 Y113.561 E.00814
G1 X136.804 Y113.757 E.01044
G1 X136.988 Y113.787 E.00585
G1 X158.422 Y113.787 E.67205
G1 X158.422 Y118.613 E.15132
G1 X158.422 Y123.713 E.15991
G1 X151.576 Y123.713 E.21465
G1 X146.711 Y117.915 E.23731
G1 X146.449 Y117.74 E.00988
G1 X146.278 Y117.713 E.00543
G1 X130.921 Y117.717 E.48151
M73 P0 R54
G1 X130.661 Y117.817 E.00873
G1 X130.488 Y118.013 E.0082
G1 X130.422 Y118.279 E.00859
G1 X130.422 Y123.713 E.17038
G1 X112.578 Y123.713 E.55949
G1 X112.578 Y86.287 E1.17346
G1 X130.422 Y86.287 E.55949
G1 X130.422 Y91.721 E.17038
G1 X130.437 Y91.849 E.00404
G1 X130.539 Y92.065 E.00749
G1 X130.733 Y92.226 E.0079
G1 X130.988 Y92.287 E.00822
G1 X146.278 Y92.287 E.47941
G1 X146.449 Y92.26 E.00543
G1 X146.711 Y92.085 E.00988
G1 X151.576 Y86.287 E.23731
G1 X158.422 Y86.287 E.21465
G1 X158.422 Y96.213 E.31122
G1 X136.988 Y96.213 E.67205
G1 X136.89 Y96.221 E.00308
G1 X136.648 Y96.326 E.00827
G1 X136.466 Y96.561 E.00932
G1 X136.449 Y96.641 E.00256
M204 S1000
G1 X136.799 Y96.779 F10800
M204 S800
;TYPE:External perimeter
G1 F1200
G1 X136.799 Y102.221 E.17063
G1 X136.848 Y102.348 E.00427
M73 Q1 S55
G1 X136.988 Y102.41 E.0048
G1 X158.799 Y102.41 E.68387
G1 X158.799 Y107.59 E.16241
M73 P1 R54
G1 X136.988 Y107.59 E.68387
G1 X136.867 Y107.634 E.00404
G1 X136.799 Y107.776 E.00494
G1 X136.799 Y113.221 E.17072
G1 X136.837 Y113.335 E.00377
G1 X136.988 Y113.41 E.00529
G1 X158.799 Y113.41 E.68387
G1 X158.799 Y118.613 E.16314
G1 X158.799 Y124.09 E.17173
G1 X151.4 Y124.09 E.23199
G1 X146.422 Y118.157 E.24283
G1 X146.278 Y118.09 E.00498
G1 X130.988 Y118.09 E.47941
G1 X130.868 Y118.133 E.004
G1 X130.799 Y118.279 E.00506
G1 X130.799 Y124.09 E.1822
G1 X112.201 Y124.09 E.58313
G1 X112.201 Y85.91 E1.19711
G1 X130.799 Y85.91 E.58313
M73 Q1 S54
G1 X130.799 Y91.721 E.1822
G1 X130.847 Y91.848 E.00426
G1 X130.988 Y91.91 E.00483
G1 X146.278 Y91.91 E.47941
G1 X146.422 Y91.843 E.00498
G1 X151.4 Y85.91 E.24283
G1 X158.799 Y85.91 E.23199
G1 X158.799 Y96.59 E.33486
G1 X136.988 Y96.59 E.68387
G1 X136.874 Y96.628 E.00377
G1 X136.826 Y96.725 E.00339
M204 S1000
;WIPE_START
G1 F8640
G1 X136.799 Y96.779 E-.01394
G1 X136.799 Y101.05 E-.98606
;WIPE_END
G1 Z.4 F720
G1 X157.79 Y113.957 F10800
G1 Z.2 F720
G1 E1 F2100
M204 S800
;TYPE:Solid infill
;WIDTH:0.420042
G1 F1200
G1 X158.083 Y114.249 E.01297
G1 X158.083 Y114.783 E.01675
G1 X157.426 Y114.126 E.02914
G1 X156.893 Y114.126 E.01671
G1 X158.083 Y115.316 E.05277
G1 X158.083 Y115.849 E.01671
G1 X156.36 Y114.126 E.07641
G1 X155.826 Y114.126 E.01675
G1 X158.083 Y116.383 E.10009
G1 X158.083 Y116.916 E.01671
G1 X155.293 Y114.126 E.12373
G1 X154.76 Y114.126 E.01671
G1 X158.083 Y117.449 E.14736
G1 X158.083 Y117.983 E.01675
G1 X154.226 Y114.126 E.17105
G1 X153.693 Y114.126 E.01671
G1 X158.083 Y118.516 E.19468
G1 X158.083 Y119.049 E.01671
G1 X153.16 Y114.126 E.21832
G1 X152.626 Y114.126 E.01675
G1 X158.083 Y119.583 E.242
G1 X158.083 Y120.116 E.01671
G1 X152.093 Y114.126 E.26564
G1 X151.56 Y114.126 E.01671
G1 X158.083 Y120.649 E.28927
G1 X158.083 Y121.183 E.01675
G1 X151.026 Y114.126 E.31295
G1 X150.493 Y114.126 E.01671
G1 X158.083 Y121.716 E.33659
G1 X158.083 Y122.249 E.01671
G1 X149.96 Y114.126 E.36023
G1 X149.426 Y114.126 E.01675
G1 X158.083 Y122.783 E.38391
G1 X158.083 Y123.316 E.01671
G1 X148.893 Y114.126 E.40755
G1 X148.36 Y114.126 E.01671
G1 X157.607 Y123.374 E.4101
G1 X157.074 Y123.374 E.01671
G1 X147.826 Y114.126 E.41012
G1 X147.293 Y114.126 E.01671
G1 X156.54 Y123.374 E.4101
G1 X156.007 Y123.374 E.01671
G1 X146.76 Y114.126 E.4101
G1 X146.226 Y114.126 E.01675
G1 X155.474 Y123.374 E.41012
G1 X154.94 Y123.374 E.01675
G1 X145.693 Y114.126 E.4101
G1 X145.16 Y114.126 E.01671
G1 X154.407 Y123.374 E.4101
G1 X153.874 Y123.374 E.01671
G1 X144.626 Y114.126 E.41012
G1 X144.093 Y114.126 E.01671
G1 X153.34 Y123.374 E.4101
G1 X152.807 Y123.374 E.01671
G1 X143.56 Y114.126 E.4101
G1 X143.026 Y114.126 E.01675
G1 X146.274 Y117.374 E.14404
G1 X146.552 Y117.414 E.00881
G1 X146.791 Y117.531 E.00834
G1 X146.964 Y117.689 E.00735
G1 X148.922 Y120.022 E.09551
G1 X152.274 Y123.374 E.14865
G1 X151.74 Y123.374 E.01675
G1 X150.327 Y121.96 E.06268
M204 S1000
;WIPE_START
G1 F8640
G1 X151.74 Y123.374 E-.46157
G1 X152.274 Y123.374 E-.1233
G1 X151.003 Y122.103 E-.41513
;WIPE_END
G1 Z.4 F720
G1 X145.91 Y117.543 F10800
G1 Z.2 F720
G1 E1 F2100
M204 S800
G1 F1200
G1 X142.493 Y114.126 E.15153
G1 X141.96 Y114.126 E.01671
G1 X145.207 Y117.374 E.14402
G1 X144.674 Y117.374 E.01671
G1 X141.426 Y114.126 E.14404
G1 X140.893 Y114.126 E.01671
G1 X144.14 Y117.374 E.14402
G1 X143.607 Y117.374 E.01671
G1 X140.36 Y114.126 E.14402
G1 X139.827 Y114.126 E.01671
G1 X143.074 Y117.374 E.14402
G1 X142.54 Y117.374 E.01675
G1 X139.293 Y114.126 E.14402
G1 X138.76 Y114.126 E.01671
G1 X142.007 Y117.374 E.14402
G1 X141.474 Y117.374 E.01671
G1 X138.227 Y114.126 E.14402
G1 X137.693 Y114.126 E.01675
G1 X140.94 Y117.374 E.14402
G1 X140.407 Y117.374 E.01671
G1 X136.99 Y113.957 E.15153
M204 S1000
;WIPE_START
G1 F8640
G1 X140.052 Y117.019 E-1
;WIPE_END
G1 Z.4 F720
G1 X158.252 Y87.219 F10800
G1 Z.2 F720
G1 E1 F2100
M204 S800
G1 F1200
G1 X157.66 Y86.626 E.02628
G1 X157.126 Y86.626 E.01675
G1 X158.083 Y87.583 E.04244
G1 X158.083 Y88.116 E.01671
G1 X156.593 Y86.626 E.06608
G1 X156.06 Y86.626 E.01671
G1 X158.083 Y88.649 E.08971
G1 X158.083 Y89.183 E.01675
G1 X155.526 Y86.626 E.11339
G1 X154.993 Y86.626 E.01671
M73 P2 R54
M73 Q2 S54
G1 X158.083 Y89.716 E.13703
G1 X158.083 Y90.249 E.01671
G1 X154.46 Y86.626 E.16067
G1 X153.926 Y86.626 E.01675
G1 X158.083 Y90.783 E.18435
G1 X158.083 Y91.316 E.01671
G1 X153.393 Y86.626 E.20799
G1 X152.86 Y86.626 E.01671
G1 X158.083 Y91.849 E.23162
G1 X158.083 Y92.383 E.01675
G1 X152.326 Y86.626 E.2553
G1 X151.793 Y86.626 E.01671
G1 X158.083 Y92.916 E.27894
G1 X158.083 Y93.449 E.01671
G1 X151.518 Y86.885 E.29111
G1 X151.274 Y87.175 E.01188
G1 X158.083 Y93.983 E.30193
G1 X158.083 Y94.516 E.01671
G1 X151.031 Y87.465 E.31271
G1 X150.788 Y87.755 E.01186
G1 X158.083 Y95.049 E.32349
G1 X158.083 Y95.583 E.01675
G1 X150.544 Y88.045 E.33431
G1 X150.301 Y88.335 E.01186
G1 X157.84 Y95.874 E.33433
G1 X157.307 Y95.874 E.01671
G1 X150.058 Y88.625 E.32147
G1 X149.814 Y88.915 E.01188
G1 X156.773 Y95.874 E.30861
G1 X156.24 Y95.874 E.01671
G1 X149.571 Y89.205 E.29575
G1 X149.328 Y89.495 E.01186
G1 X155.707 Y95.874 E.28289
G1 X155.173 Y95.874 E.01675
G1 X149.084 Y89.785 E.27003
G1 X148.841 Y90.075 E.01186
G1 X154.64 Y95.874 E.25717
G1 X154.107 Y95.874 E.01671
G1 X148.598 Y90.365 E.24431
G1 X148.354 Y90.654 E.01186
G1 X153.573 Y95.874 E.23147
G1 X153.04 Y95.874 E.01671
G1 X148.111 Y90.944 E.21861
G1 X147.868 Y91.234 E.01186
G1 X152.507 Y95.874 E.20575
G1 X151.973 Y95.874 E.01675
G1 X147.624 Y91.524 E.19289
G1 X147.381 Y91.814 E.01186
G1 X151.44 Y95.874 E.18003
G1 X150.907 Y95.874 E.01671
G1 X147.138 Y92.104 E.16716
G1 X146.884 Y92.384 E.01185
G1 X150.373 Y95.874 E.15475
G1 X149.84 Y95.874 E.01671
G1 X146.551 Y92.584 E.14588
G1 X146.426 Y92.615 E.00404
G1 X146.049 Y92.615 E.01182
G1 X149.307 Y95.874 E.1445
G1 X148.773 Y95.874 E.01675
G1 X145.516 Y92.616 E.14446
G1 X144.983 Y92.616 E.01671
G1 X148.24 Y95.874 E.14446
G1 X147.707 Y95.874 E.01671
G1 X144.45 Y92.617 E.14444
G1 X143.917 Y92.617 E.01671
G1 X147.173 Y95.874 E.14441
G1 X146.64 Y95.874 E.01671
G1 X143.384 Y92.617 E.14441
G1 X142.851 Y92.618 E.01671
G1 X146.107 Y95.874 E.14439
G1 X145.574 Y95.874 E.01671
G1 X142.318 Y92.618 E.14439
G1 X141.785 Y92.619 E.01671
G1 X145.04 Y95.874 E.14435
G1 X144.507 Y95.874 E.01671
G1 X141.252 Y92.619 E.14435
G1 X140.719 Y92.619 E.01671
G1 X143.974 Y95.874 E.14435
G1 X143.44 Y95.874 E.01675
G1 X140.186 Y92.62 E.1443
G1 X139.653 Y92.62 E.01671
G1 X142.907 Y95.874 E.1443
G1 X142.374 Y95.874 E.01671
G1 X139.12 Y92.62 E.1443
G1 X138.587 Y92.621 E.01671
G1 X141.84 Y95.874 E.14426
G1 X141.307 Y95.874 E.01671
G1 X138.055 Y92.621 E.14424
G1 X137.522 Y92.622 E.01671
G1 X140.774 Y95.874 E.14422
G1 X140.24 Y95.874 E.01675
G1 X136.989 Y92.622 E.14419
G1 X136.456 Y92.622 E.01671
G1 X139.707 Y95.874 E.14419
G1 X139.174 Y95.874 E.01671
G1 X135.923 Y92.623 E.14417
G1 X135.39 Y92.623 E.01671
G1 X138.64 Y95.874 E.14415
G1 X138.107 Y95.874 E.01671
G1 X134.857 Y92.624 E.14413
G1 X134.324 Y92.624 E.01671
G1 X137.574 Y95.874 E.14413
G1 X137.04 Y95.874 E.01675
M73 P2 R53
G1 X133.791 Y92.624 E.1441
G1 X133.258 Y92.625 E.01671
G1 X136.602 Y95.969 E.1483
G1 X136.445 Y96.053 E.00558
G1 X136.299 Y96.199 E.00647
G1 X132.725 Y92.625 E.15849
G1 X132.192 Y92.626 E.01671
G1 X136.116 Y96.549 E.17399
G1 X136.083 Y96.772 E.00707
G1 X136.083 Y97.049 E.00869
G1 X131.49 Y92.456 E.20368
M204 S1000
;WIPE_START
G1 F8640
G1 X134.552 Y95.519 E-1
;WIPE_END
G1 Z.4 F720
G1 X130.252 Y86.952 F10800
G1 Z.2 F720
G1 E1 F2100
M204 S800
G1 F1200
G1 X129.926 Y86.626 E.01446
G1 X129.393 Y86.626 E.01671
G1 X130.083 Y87.316 E.0306
G1 X130.083 Y87.849 E.01671
G1 X128.86 Y86.626 E.05424
G1 X128.326 Y86.626 E.01675
G1 X130.083 Y88.383 E.07792
G1 X130.083 Y88.916 E.01671
G1 X127.793 Y86.626 E.10155
G1 X127.26 Y86.626 E.01671
G1 X130.083 Y89.449 E.12519
G1 X130.083 Y89.983 E.01675
G1 X126.726 Y86.626 E.14887
G1 X126.193 Y86.626 E.01671
G1 X130.083 Y90.516 E.17251
G1 X130.083 Y91.049 E.01671
G1 X125.66 Y86.626 E.19615
G1 X125.126 Y86.626 E.01675
G1 X130.083 Y91.583 E.21983
G1 X130.105 Y91.924 E.01072
G1 X130.155 Y92.077 E.00505
G1 X130.228 Y92.214 E.00487
G1 X130.366 Y92.381 E.00679
G1 X130.632 Y92.555 E.00997
G1 X130.791 Y92.605 E.00523
G1 X131.126 Y92.626 E.01053
G1 X136.083 Y97.583 E.21983
G1 X136.083 Y98.117 E.01675
G1 X124.593 Y86.626 E.50957
G1 X124.06 Y86.626 E.01671
G1 X136.084 Y98.65 E.53322
G1 X136.084 Y99.184 E.01675
G1 X123.526 Y86.626 E.55691
G1 X122.993 Y86.626 E.01671
G1 X136.084 Y99.717 E.58054
G1 X136.084 Y100.251 E.01675
G1 X122.46 Y86.626 E.6042
G1 X121.926 Y86.626 E.01675
G1 X136.085 Y100.785 E.6279
G1 X136.085 Y101.318 E.01671
G1 X121.393 Y86.626 E.65154
G1 X120.86 Y86.626 E.01671
G1 X136.255 Y102.021 E.68272
M204 S1000
;WIPE_START
G1 F8640
G1 X133.193 Y98.959 E-1
;WIPE_END
G1 Z.4 F720
G1 X157.457 Y102.957 F10800
G1 Z.2 F720
G1 E1 F2100
M204 S800
G1 F1200
G1 X158.083 Y103.583 E.02776
G1 X158.083 Y104.116 E.01671
G1 X157.093 Y103.126 E.0439
G1 X156.56 Y103.126 E.01671
G1 X158.083 Y104.649 E.06754
G1 X158.083 Y105.183 E.01675
G1 X156.026 Y103.126 E.09122
G1 X155.493 Y103.126 E.01671
G1 X158.083 Y105.716 E.11486
G1 X158.083 Y106.249 E.01671
G1 X154.96 Y103.126 E.13849
G1 X154.426 Y103.126 E.01675
G1 X158.083 Y106.783 E.16218
G1 X158.083 Y106.874 E.00285
G1 X157.64 Y106.874 E.01389
G1 X153.893 Y103.126 E.16619
G1 X153.36 Y103.126 E.01671
G1 X157.107 Y106.874 E.16619
G1 X156.573 Y106.874 E.01675
G1 X152.826 Y103.126 E.16619
G1 X152.293 Y103.126 E.01671
M73 P3 R53
M73 Q3 S54
G1 X156.04 Y106.874 E.16619
G1 X155.507 Y106.874 E.01671
G1 X151.76 Y103.126 E.16619
G1 X151.226 Y103.126 E.01675
G1 X154.974 Y106.874 E.16621
G1 X154.44 Y106.874 E.01675
G1 X150.693 Y103.126 E.16619
G1 X150.16 Y103.126 E.01671
G1 X153.907 Y106.874 E.16619
G1 X153.374 Y106.874 E.01671
M73 Q3 S53
G1 X149.626 Y103.126 E.16621
G1 X149.093 Y103.126 E.01671
G1 X152.84 Y106.874 E.16619
G1 X152.307 Y106.874 E.01671
G1 X148.56 Y103.126 E.16619
G1 X148.026 Y103.126 E.01675
G1 X151.774 Y106.874 E.16621
G1 X151.24 Y106.874 E.01675
G1 X147.493 Y103.126 E.16619
G1 X146.96 Y103.126 E.01671
G1 X150.707 Y106.874 E.16619
G1 X150.174 Y106.874 E.01671
G1 X146.426 Y103.126 E.16621
G1 X145.893 Y103.126 E.01671
G1 X149.64 Y106.874 E.16619
G1 X149.107 Y106.874 E.01671
G1 X145.36 Y103.126 E.16619
G1 X144.826 Y103.126 E.01675
G1 X148.574 Y106.874 E.16621
G1 X148.04 Y106.874 E.01675
G1 X144.293 Y103.126 E.16619
G1 X143.76 Y103.126 E.01671
G1 X147.507 Y106.874 E.16619
G1 X146.974 Y106.874 E.01671
G1 X143.226 Y103.126 E.16621
G1 X142.693 Y103.126 E.01671
G1 X146.44 Y106.874 E.16619
G1 X145.907 Y106.874 E.01671
G1 X142.16 Y103.126 E.16619
G1 X141.626 Y103.126 E.01675
G1 X145.374 Y106.874 E.16621
G1 X144.84 Y106.874 E.01675
G1 X141.093 Y103.126 E.16619
G1 X140.56 Y103.126 E.01671
G1 X144.307 Y106.874 E.16619
G1 X143.774 Y106.874 E.01671
G1 X140.026 Y103.126 E.16621
G1 X139.493 Y103.126 E.01671
G1 X143.24 Y106.874 E.16619
G1 X142.707 Y106.874 E.01671
G1 X138.96 Y103.126 E.16619
G1 X138.426 Y103.126 E.01675
G1 X142.174 Y106.874 E.16621
G1 X141.64 Y106.874 E.01675
G1 X137.893 Y103.126 E.16619
G1 X137.36 Y103.126 E.01671
G1 X141.107 Y106.874 E.16619
G1 X140.574 Y106.874 E.01671
G1 X120.326 Y86.626 E.89793
G1 X119.793 Y86.626 E.01671
G1 X140.04 Y106.874 E.89791
G1 X139.507 Y106.874 E.01671
G1 X119.26 Y86.626 E.89791
G1 X118.726 Y86.626 E.01675
G1 X138.974 Y106.874 E.89793
G1 X138.44 Y106.874 E.01675
G1 X118.193 Y86.626 E.89791
G1 X117.66 Y86.626 E.01671
G1 X137.907 Y106.874 E.89791
G1 X137.374 Y106.874 E.01671
G1 X117.126 Y86.626 E.89793
