; generated by PrusaSlicer 2.7.1+MacOS-x64 on 2024-05-21 at 13:46:43 UTC


;
;
; 

; external perimeters extrusion width = 0.60mm
; perimeters extrusion width = 0.50mm
; infill extrusion width = 0.50mm
; solid infill extrusion width = 0.50mm
; top infill extrusion width = 0.45mm
; first layer extrusion width = 0.42mm

; external perimeters extrusion width = 0.60mm
; perimeters extrusion width = 0.50mm
; infill extrusion width = 0.50mm
; solid infill extrusion width = 0.50mm
; top infill extrusion width = 0.45mm
; first layer extrusion width = 0.42mm

; external perimeters extrusion width = 0.60mm
; perimeters extrusion width = 0.50mm
; infill extrusion width = 0.50mm
; solid infill extrusion width = 0.50mm
; top infill extrusion width = 0.45mm
; first layer extrusion width = 0.42mm

; external perimeters extrusion width = 0.60mm
; perimeters extrusion width = 0.50mm
; infill extrusion width = 0.50mm
; solid infill extrusion width = 0.50mm
; top infill extrusion width = 0.45mm
; first layer extrusion width = 0.42mm

; external perimeters extrusion width = 0.60mm
; perimeters extrusion width = 0.50mm
; infill extrusion width = 0.50mm
; solid infill extrusion width = 0.50mm
; top infill extrusion width = 0.45mm
; first layer extrusion width = 0.42mm

; external perimeters extrusion width = 0.60mm
; perimeters extrusion width = 0.50mm
; infill extrusion width = 0.50mm
; solid infill extrusion width = 0.50mm
; top infill extrusion width = 0.45mm
; first layer extrusion width = 0.42mm

M73 P0 R628
M73 Q0 S629
M201 X1000 Y1000 Z200 E5000 ; sets maximum accelerations, mm/sec^2
M203 X200 Y200 Z12 E120 ; sets maximum feedrates, mm / sec
M204 S1250 T1250 ; sets acceleration (S) and retract acceleration (R), mm/sec^2
M205 X8.00 Y8.00 Z0.40 E4.50 ; sets the jerk limits, mm/sec
M205 S0 T0 ; sets the minimum extruding and travel feed rate, mm/sec

; printing object Shape-Box id:0 copy 0
; stop printing object Shape-Box id:0 copy 0
; printing object Shape-Box id:1 copy 0
; stop printing object Shape-Box id:1 copy 0
; printing object Shape-Box id:2 copy 0
; stop printing object Shape-Box id:2 copy 0
; printing object Shape-Box id:3 copy 0
; stop printing object Shape-Box id:3 copy 0
; printing object Shape-Box id:4 copy 0
; stop printing object Shape-Box id:4 copy 0
; printing object Shape-Box id:5 copy 0
; stop printing object Shape-Box id:5 copy 0

;TYPE:Custom
M862.3 P "MK3S" ; printer model check
M862.1 P0.4 ; nozzle diameter check
M115 U3.13.3 ; tell printer latest fw version
G90 ; use absolute coordinates
M83 ; extruder relative mode
M104 S238 ; set extruder temp
M140 S50 ; set bed temp
M190 S50 ; wait for bed temp
M109 S238 ; wait for extruder temp
G28 W ; home all without mesh bed level
G80 X27.9588 Y34.7852 W194.082 H140.494 ; mesh bed levelling

G1 Z0.2 F720
G1 Y-3 F1000 ; go outside print area
G92 E0
G1 X60 E9 F1000 ; intro line
G1 X100 E12.5 F1000 ; intro line

G92 E0
M221 S95

; Don't change E values below. Excessive value can damage the printer.

M907 E538 ; set extruder motor current
G21 ; set units to millimeters
G90 ; use absolute coordinates
M83 ; use relative distances for extrusion
M900 K0 ; Filament gcode
M107
;LAYER_CHANGE
;Z:0.2
;HEIGHT:0.2
;BEFORE_LAYER_CHANGE
G92 E0.0
;0.2


G1 E-2.5 F3600
G1 Z.2 F720
;AFTER_LAYER_CHANGE
;0.2
G1 X29.585 Y35.432 F10800
G1 Z.2 F720
G1 E2.5 F1500
M204 S800
;TYPE:Skirt/Brim
;WIDTH:0.42
G1 F954.706
G1 X30.52 Y35.238 E.03593
G1 X161.506 Y34.974 E4.92838
G1 X187.583 Y35.538 E.98138
M73 Q0 S628
G1 X219.609 Y37.34 E1.20689
G1 X220.892 Y37.804 E.05133
G1 X221.708 Y38.898 E.05135
G1 X221.853 Y39.713 E.03115
G1 X221.853 Y172.713 E5.00415
G1 X221.461 Y174.02 E.05134
G1 X220.415 Y174.897 E.05136
G1 X219.476 Y175.09 E.03607
G1 X193.445 Y175.09 E.97942
G1 X30.494 Y172.992 E6.13157
G1 X29.192 Y172.584 E.05134
M73 P0 R627
G1 X28.329 Y171.527 E.05134
G1 X28.147 Y170.616 E.03495
G1 X28.147 Y37.616 E5.00415
G1 X28.539 Y36.309 E.05134
G1 X29.539 Y35.471 E.04909
M204 S1000
; printing object Shape-Box id:3 copy 0
G1 E-2.5 F3600
G1 X29.539 Y35.471 F10800
G1 X218.688 Y171.926
G1 E2.5 F1500
M204 S800
;TYPE:Perimeter
;WIDTH:0.419999
G1 F954.707
G1 X194.263 Y171.926 E.91899
G1 X194.263 Y40.5 E4.94492
G1 X218.688 Y40.5 E.91899
G1 X218.688 Y52.713 E.45952
G1 X218.688 Y171.866 E4.48314
M204 S1000
G1 X219.066 Y172.303 F10800
M73 Q0 S627
M204 S800
;TYPE:External perimeter
G1 F954.707
G1 X193.886 Y172.303 E.9474
G1 X193.886 Y40.123 E4.97328
G1 X219.066 Y40.123 E.9474
G1 X219.066 Y52.713 E.4737
G1 X219.066 Y172.243 E4.49733
M204 S1000
G1 X218.67 Y172.303 F10800
G1 E-2.5 F3600
G1 X217.756 Y40.67 F10800
G1 E2.5 F1500
M204 S800
;TYPE:Solid infill
;WIDTH:0.420161
G1 F954.297
G1 X218.349 Y41.263 E.03157
G1 X218.349 Y41.796 E.02006
G1 X217.392 Y40.84 E.05092
G1 X216.859 Y40.84 E.02006
G1 X218.349 Y42.33 E.07932
G1 X218.349 Y42.863 E.02006
G1 X216.325 Y40.84 E.10772
G1 X215.792 Y40.84 E.02006
G1 X218.349 Y43.397 E.13612
G1 X218.349 Y43.93 E.02006
G1 X215.258 Y40.84 E.16452
G1 X214.725 Y40.84 E.02006
G1 X218.349 Y44.464 E.19292
G1 X218.349 Y44.997 E.02006
G1 X214.191 Y40.84 E.22132
G1 X213.658 Y40.84 E.02006
G1 X218.349 Y45.531 E.24971
G1 X218.349 Y46.064 E.02006
G1 X213.124 Y40.84 E.27811
G1 X212.591 Y40.84 E.02006
G1 X218.349 Y46.598 E.30651
G1 X218.349 Y47.131 E.02006
G1 X212.057 Y40.84 E.33491
G1 X211.524 Y40.84 E.02006
G1 X218.349 Y47.665 E.36331
G1 X218.349 Y48.198 E.02006
M73 P0 R626
G1 X210.99 Y40.84 E.39171
G1 X210.457 Y40.84 E.02006
G1 X218.349 Y48.732 E.42011
G1 X218.349 Y49.265 E.02006
G1 X209.923 Y40.84 E.44851
G1 X209.39 Y40.84 E.02006
G1 X218.349 Y49.799 E.47691
G1 X218.349 Y50.332 E.02006
G1 X208.856 Y40.84 E.50531
G1 X208.323 Y40.84 E.02006
G1 X218.349 Y50.866 E.53371
G1 X218.349 Y51.399 E.02006
G1 X207.789 Y40.84 E.56211
G1 X207.256 Y40.84 E.02006
G1 X218.349 Y51.933 E.59051
G1 X218.349 Y52.466 E.02006
G1 X206.722 Y40.84 E.61891
G1 X206.189 Y40.84 E.02006
G1 X218.349 Y53 E.64731
G1 X218.349 Y53.533 E.02006
G1 X205.655 Y40.84 E.67571
G1 X205.122 Y40.84 E.02006
G1 X218.349 Y54.067 E.70411
G1 X218.349 Y54.6 E.02006
G1 X204.588 Y40.84 E.73251
G1 X204.055 Y40.84 E.02006
G1 X218.349 Y55.134 E.76091
G1 X218.349 Y55.667 E.02006
G1 X203.521 Y40.84 E.78931
G1 X202.988 Y40.84 E.02006
G1 X218.349 Y56.201 E.81771
G1 X218.349 Y56.734 E.02006
G1 X202.454 Y40.84 E.84611
G1 X201.921 Y40.84 E.02006
G1 X218.349 Y57.268 E.87451
G1 X218.349 Y57.801 E.02006
G1 X201.387 Y40.84 E.90291
G1 X200.854 Y40.84 E.02006
G1 X218.349 Y58.335 E.93131
G1 X218.349 Y58.868 E.02006
G1 X200.32 Y40.84 E.95971
G1 X199.787 Y40.84 E.02006
G1 X218.349 Y59.402 E.98811
G1 X218.349 Y59.935 E.02006
G1 X199.253 Y40.84 E1.01651
G1 X198.72 Y40.84 E.02006
G1 X218.349 Y60.469 E1.04491
G1 X218.349 Y61.002 E.02006
G1 X198.186 Y40.84 E1.07331
G1 X197.653 Y40.84 E.02006
G1 X218.349 Y61.536 E1.10171
G1 X218.349 Y62.069 E.02006
M73 Q0 S626
G1 X197.119 Y40.84 E1.13011
G1 X196.586 Y40.84 E.02006
G1 X218.349 Y62.603 E1.1585
G1 X218.349 Y63.136 E.02006
G1 X196.052 Y40.84 E1.1869
G1 X195.519 Y40.84 E.02006
G1 X218.349 Y63.67 E1.2153
G1 X218.349 Y64.203 E.02006
G1 X194.985 Y40.84 E1.2437
G1 X194.602 Y40.84 E.01442
G1 X194.602 Y40.99 E.00565
G1 X218.349 Y64.737 E1.26412
G1 X218.349 Y65.27 E.02006
G1 X194.602 Y41.523 E1.26412
G1 X194.602 Y42.057 E.0201
G1 X218.349 Y65.804 E1.26412
G1 X218.349 Y66.337 E.02006
G1 X194.602 Y42.59 E1.26412
G1 X194.602 Y43.124 E.0201
G1 X218.349 Y66.871 E1.26412
G1 X218.349 Y67.404 E.02006
G1 X194.602 Y43.657 E1.26412
G1 X194.602 Y44.191 E.0201
G1 X218.349 Y67.938 E1.26412
G1 X218.349 Y68.471 E.02006
G1 X194.602 Y44.724 E1.26412
G1 X194.602 Y45.258 E.0201
M73 P0 R625
G1 X218.349 Y69.005 E1.26412
G1 X218.349 Y69.538 E.02006
G1 X194.602 Y45.791 E1.26412
G1 X194.602 Y46.325 E.0201
G1 X218.349 Y70.072 E1.26412
G1 X218.349 Y70.605 E.02006
G1 X194.602 Y46.858 E1.26412
G1 X194.602 Y47.392 E.0201
G1 X218.349 Y71.139 E1.26412
G1 X218.349 Y71.672 E.02006
G1 X194.602 Y47.925 E1.26412
G1 X194.602 Y48.459 E.0201
G1 X218.349 Y72.206 E1.26412
G1 X218.349 Y72.739 E.02006
G1 X194.602 Y48.992 E1.26412
G1 X194.602 Y49.526 E.0201
G1 X218.349 Y73.273 E1.26412
G1 X218.349 Y73.806 E.02006
G1 X194.602 Y50.059 E1.26412
G1 X194.602 Y50.593 E.0201
G1 X218.349 Y74.34 E1.26412
G1 X218.349 Y74.873 E.02006
G1 X194.602 Y51.126 E1.26412
G1 X194.602 Y51.66 E.0201
G1 X218.349 Y75.407 E1.26412
G1 X218.349 Y75.94 E.02006
G1 X194.602 Y52.193 E1.26412
G1 X194.602 Y52.727 E.0201
G1 X218.349 Y76.474 E1.26412
G1 X218.349 Y77.007 E.02006
M73 Q0 S625
G1 X194.602 Y53.26 E1.26412
G1 X194.602 Y53.794 E.0201
G1 X218.349 Y77.541 E1.26412
G1 X218.349 Y78.074 E.02006
G1 X194.602 Y54.327 E1.26412
G1 X194.602 Y54.861 E.0201
G1 X218.349 Y78.608 E1.26412
G1 X218.349 Y79.141 E.02006
G1 X194.602 Y55.394 E1.26412
G1 X194.602 Y55.928 E.0201
G1 X218.349 Y79.675 E1.26412
G1 X218.349 Y80.208 E.02006
G1 X194.602 Y56.461 E1.26412
G1 X194.602 Y56.995 E.0201
G1 X218.349 Y80.742 E1.26412
G1 X218.349 Y81.275 E.02006
G1 X194.602 Y57.528 E1.26412
G1 X194.602 Y58.062 E.0201
G1 X218.349 Y81.809 E1.26412
G1 X218.349 Y82.342 E.02006
G1 X194.602 Y58.595 E1.26412
G1 X194.602 Y59.129 E.0201
G1 X218.349 Y82.876 E1.26412
G1 X218.349 Y83.409 E.02006
G1 X194.602 Y59.662 E1.26412
G1 X194.602 Y60.196 E.0201
M73 P0 R624
G1 X218.349 Y83.943 E1.26412
G1 X218.349 Y84.476 E.02006
G1 X194.602 Y60.729 E1.26412
G1 X194.602 Y61.263 E.0201
G1 X218.349 Y85.01 E1.26412
G1 X218.349 Y85.543 E.02006
G1 X194.602 Y61.796 E1.26412
G1 X194.602 Y62.33 E.0201
G1 X218.349 Y86.077 E1.26412
G1 X218.349 Y86.61 E.02006
G1 X194.602 Y62.863 E1.26412
G1 X194.602 Y63.397 E.0201
G1 X218.349 Y87.144 E1.26412
G1 X218.349 Y87.677 E.02006
G1 X194.602 Y63.93 E1.26412
G1 X194.602 Y64.464 E.0201
G1 X218.349 Y88.211 E1.26412
G1 X218.349 Y88.744 E.02006
G1 X194.602 Y64.997 E1.26412
G1 X194.602 Y65.531 E.0201
G1 X218.349 Y89.278 E1.26412
G1 X218.349 Y89.811 E.02006
G1 X194.602 Y66.064 E1.26412
G1 X194.602 Y66.598 E.0201
G1 X218.349 Y90.345 E1.26412
G1 X218.349 Y90.878 E.02006
G1 X194.602 Y67.131 E1.26412
G1 X194.602 Y67.665 E.0201
G1 X218.349 Y91.412 E1.26412
G1 X218.349 Y91.945 E.02006
M73 Q0 S624
G1 X194.602 Y68.198 E1.26412
G1 X194.602 Y68.732 E.0201
G1 X218.349 Y92.479 E1.26412
G1 X218.349 Y93.012 E.02006
G1 X194.602 Y69.265 E1.26412
G1 X194.602 Y69.799 E.0201
G1 X218.349 Y93.546 E1.26412
G1 X218.349 Y94.079 E.02006
G1 X194.602 Y70.332 E1.26412
G1 X194.602 Y70.866 E.0201
G1 X218.349 Y94.613 E1.26412
G1 X218.349 Y95.146 E.02006
G1 X194.602 Y71.399 E1.26412
G1 X194.602 Y71.933 E.0201
G1 X218.349 Y95.68 E1.26412
G1 X218.349 Y96.213 E.02006
G1 X194.602 Y72.466 E1.26412
G1 X194.602 Y73 E.0201
G1 X218.349 Y96.747 E1.26412
G1 X218.349 Y97.28 E.02006
G1 X194.602 Y73.533 E1.26412
G1 X194.602 Y74.067 E.0201
G1 X218.349 Y97.814 E1.26412
G1 X218.349 Y98.347 E.02006
G1 X194.602 Y74.6 E1.26412
G1 X194.602 Y75.134 E.0201
M73 P0 R623
G1 X218.349 Y98.881 E1.26412
G1 X218.349 Y99.414 E.02006
G1 X194.602 Y75.667 E1.26412
G1 X194.602 Y76.201 E.0201
G1 X218.349 Y99.948 E1.26412
G1 X218.349 Y100.481 E.02006
G1 X194.602 Y76.734 E1.26412
G1 X194.602 Y77.268 E.0201
G1 X218.349 Y101.015 E1.26412
G1 X218.349 Y101.548 E.02006
G1 X194.602 Y77.801 E1.26412
G1 X194.602 Y78.335 E.0201
G1 X218.349 Y102.082 E1.26412
G1 X218.349 Y102.615 E.02006
G1 X194.602 Y78.868 E1.26412
G1 X194.602 Y79.402 E.0201
G1 X218.349 Y103.149 E1.26412
G1 X218.349 Y103.682 E.02006
G1 X194.602 Y79.935 E1.26412
G1 X194.602 Y80.469 E.0201
G1 X218.349 Y104.216 E1.26412
G1 X218.349 Y104.749 E.02006
G1 X194.602 Y81.002 E1.26412
G1 X194.602 Y81.536 E.0201
G1 X218.349 Y105.283 E1.26412
G1 X218.349 Y105.816 E.02006
G1 X194.602 Y82.069 E1.26412
G1 X194.602 Y82.603 E.0201
G1 X218.349 Y106.35 E1.26412
G1 X218.349 Y106.883 E.02006
M73 Q0 S623
G1 X194.602 Y83.136 E1.26412
G1 X194.602 Y83.67 E.0201
G1 X218.349 Y107.417 E1.26412
G1 X218.349 Y107.95 E.02006
G1 X194.602 Y84.203 E1.26412
G1 X194.602 Y84.737 E.0201
G1 X218.349 Y108.484 E1.26412
G1 X218.349 Y109.017 E.02006
G1 X194.602 Y85.27 E1.26412
G1 X194.602 Y85.804 E.0201
G1 X218.349 Y109.551 E1.26412
G1 X218.349 Y110.084 E.02006
G1 X194.602 Y86.337 E1.26412
G1 X194.602 Y86.871 E.0201
G1 X218.349 Y110.618 E1.26412
G1 X218.349 Y111.151 E.02006
G1 X194.602 Y87.404 E1.26412
G1 X194.602 Y87.938 E.0201
G1 X218.349 Y111.685 E1.26412
G1 X218.349 Y112.218 E.02006
G1 X194.602 Y88.471 E1.26412
G1 X194.602 Y89.005 E.0201
G1 X218.349 Y112.752 E1.26412
G1 X218.349 Y113.285 E.02006
G1 X194.602 Y89.538 E1.26412
G1 X194.602 Y90.072 E.0201
M73 P0 R622
G1 X218.349 Y113.819 E1.26412
G1 X218.349 Y114.352 E.02006
G1 X194.602 Y90.605 E1.26412
G1 X194.602 Y91.139 E.0201
G1 X218.349 Y114.886 E1.26412
G1 X218.349 Y115.419 E.02006
G1 X194.602 Y91.672 E1.26412
G1 X194.602 Y92.206 E.0201
G1 X218.349 Y115.953 E1.26412
G1 X218.349 Y116.486 E.02006
G1 X194.602 Y92.739 E1.26412
G1 X194.602 Y93.273 E.0201
G1 X218.349 Y117.02 E1.26412
G1 X218.349 Y117.553 E.02006
G1 X194.602 Y93.806 E1.26412
G1 X194.602 Y94.34 E.0201
G1 X218.349 Y118.087 E1.26412
G1 X218.349 Y118.62 E.02006
G1 X194.602 Y94.873 E1.26412
G1 X194.602 Y95.407 E.0201
G1 X218.349 Y119.154 E1.26412
G1 X218.349 Y119.687 E.02006
G1 X194.602 Y95.94 E1.26412
G1 X194.602 Y96.474 E.0201
G1 X218.349 Y120.221 E1.26412
G1 X218.349 Y120.754 E.02006
G1 X194.602 Y97.007 E1.26412
G1 X194.602 Y97.541 E.0201
G1 X218.349 Y121.288 E1.26412
G1 X218.349 Y121.821 E.02006
M73 Q0 S622
G1 X194.602 Y98.074 E1.26412
G1 X194.602 Y98.608 E.0201
G1 X218.349 Y122.355 E1.26412
G1 X218.349 Y122.888 E.02006
G1 X194.602 Y99.141 E1.26412
G1 X194.602 Y99.675 E.0201
G1 X218.349 Y123.422 E1.26412
G1 X218.349 Y123.955 E.02006
M73 P1 R622
M73 Q1 S622
G1 X194.602 Y100.208 E1.26412
G1 X194.602 Y100.742 E.0201
G1 X218.349 Y124.489 E1.26412
G1 X218.349 Y125.022 E.02006
G1 X194.602 Y101.275 E1.26412
G1 X194.602 Y101.809 E.0201
G1 X218.349 Y125.556 E1.26412
G1 X218.349 Y126.089 E.02006
G1 X194.602 Y102.342 E1.26412
G1 X194.602 Y102.876 E.0201
G1 X218.349 Y126.623 E1.26412
G1 X218.349 Y127.156 E.02006
G1 X194.602 Y103.409 E1.26412
G1 X194.602 Y103.943 E.0201
G1 X218.349 Y127.69 E1.26412
G1 X218.349 Y128.223 E.02006
G1 X194.602 Y104.476 E1.26412
G1 X194.602 Y105.01 E.0201
M73 P1 R621
G1 X218.349 Y128.757 E1.26412
G1 X218.349 Y129.29 E.02006
G1 X194.602 Y105.543 E1.26412
G1 X194.602 Y106.077 E.0201
G1 X218.349 Y129.824 E1.26412
G1 X218.349 Y130.357 E.02006
G1 X194.602 Y106.61 E1.26412
G1 X194.602 Y107.144 E.0201
G1 X218.349 Y130.891 E1.26412
G1 X218.349 Y131.424 E.02006
G1 X194.602 Y107.677 E1.26412
G1 X194.602 Y108.211 E.0201
G1 X218.349 Y131.958 E1.26412
G1 X218.349 Y132.491 E.02006
G1 X194.602 Y108.744 E1.26412
G1 X194.602 Y109.278 E.0201
G1 X218.349 Y133.025 E1.26412
G1 X218.349 Y133.558 E.02006
G1 X194.602 Y109.811 E1.26412
G1 X194.602 Y110.345 E.0201
G1 X218.349 Y134.092 E1.26412
G1 X218.349 Y134.625 E.02006
G1 X194.602 Y110.878 E1.26412
G1 X194.602 Y111.412 E.0201
G1 X218.349 Y135.159 E1.26412
G1 X218.349 Y135.692 E.02006
G1 X194.602 Y111.945 E1.26412
G1 X194.602 Y112.479 E.0201
G1 X218.349 Y136.226 E1.26412
G1 X218.349 Y136.759 E.02006
M73 Q1 S621
G1 X194.602 Y113.012 E1.26412
G1 X194.602 Y113.546 E.0201
G1 X218.349 Y137.293 E1.26412
G1 X218.349 Y137.826 E.02006
G1 X194.602 Y114.079 E1.26412
G1 X194.602 Y114.613 E.0201
G1 X218.349 Y138.36 E1.26412
G1 X218.349 Y138.893 E.02006
G1 X194.602 Y115.146 E1.26412
G1 X194.602 Y115.68 E.0201
G1 X218.349 Y139.427 E1.26412
G1 X218.349 Y139.96 E.02006
G1 X194.602 Y116.213 E1.26412
G1 X194.602 Y116.747 E.0201
G1 X218.349 Y140.494 E1.26412
G1 X218.349 Y141.027 E.02006
G1 X194.602 Y117.28 E1.26412
G1 X194.602 Y117.814 E.0201
G1 X218.349 Y141.561 E1.26412
G1 X218.349 Y142.094 E.02006
G1 X194.602 Y118.347 E1.26412
G1 X194.602 Y118.881 E.0201
G1 X218.349 Y142.628 E1.26412
G1 X218.349 Y143.161 E.02006
M73 P1 R620
G1 X194.602 Y119.414 E1.26412
G1 X194.602 Y119.948 E.0201
G1 X218.349 Y143.695 E1.26412
G1 X218.349 Y144.228 E.02006
G1 X194.602 Y120.481 E1.26412
G1 X194.602 Y121.015 E.0201
G1 X218.349 Y144.762 E1.26412
G1 X218.349 Y145.295 E.02006
G1 X194.602 Y121.548 E1.26412
G1 X194.602 Y122.082 E.0201
G1 X218.349 Y145.829 E1.26412
